symbols/web/calendar_view_day/materialsymbolsoutlined/calendar_view_day_wght500gradN25_20px.svg

<svg xmlns="http://www.w3.org/2000/svg" height="20" width="20"><path d="M4.396 14.208q-.792 0-1.334-.541-.541-.542-.541-1.334V7.667q0-.792.541-1.334.542-.541 1.334-.541h11.208q.792 0 1.334.541.541.542.541 1.334v4.666q0 .792-.541 1.334-.542.541-1.334.541Zm0-1.875h11.208V7.667H4.396v4.666ZM2.521 4.312V2.438h14.958v1.874Zm0 13.25v-1.874h14.958v1.874Zm1.875-9.895v4.666-4.666Z"/></svg>

<svg xmlns="http://www.w3.org/2000/svg" height="20" width="20"><path d="M4.396 14.208Q3.604 14.208 3.062 13.667Q2.521 13.125 2.521 12.333V7.667Q2.521 6.875 3.062 6.333Q3.604 5.792 4.396 5.792H15.604Q16.396 5.792 16.938 6.333Q17.479 6.875 17.479 7.667V12.333Q17.479 13.125 16.938 13.667Q16.396 14.208 15.604 14.208ZM4.396 12.333H15.604Q15.604 12.333 15.604 12.333Q15.604 12.333 15.604 12.333V7.667Q15.604 7.667 15.604 7.667Q15.604 7.667 15.604 7.667H4.396Q4.396 7.667 4.396 7.667Q4.396 7.667 4.396 7.667V12.333Q4.396 12.333 4.396 12.333Q4.396 12.333 4.396 12.333ZM2.521 4.312V2.438H17.479V4.312ZM2.521 17.562V15.688H17.479V17.562ZM4.396 7.667Q4.396 7.667 4.396 7.667Q4.396 7.667 4.396 7.667V12.333Q4.396 12.333 4.396 12.333Q4.396 12.333 4.396 12.333Q4.396 12.333 4.396 12.333Q4.396 12.333 4.396 12.333V7.667Q4.396 7.667 4.396 7.667Q4.396 7.667 4.396 7.667Z"/></svg>
